!!!OTL: Mengjian zhouzongli
!!!ARE: Asia, China,ÿShandong Gaomi
!! III, 319
!!!SCT: C1754
!!!YEM: Copyright 1995, estate of Helmut Schaffrath.
**kern
*ICvox
*Ivox
*M2/4
*k[f#]
*G:
{8g
8g
8g
16e
16d
=1
8g
8g
4e
=2
8dd
16ee
16gg
16ee
16dd
8b
=3
2a}
=4
{8dd
8a
8dd
16b
16b
=5
8a
8dd
4b
=6
8a
8d
4e
=7
8.dd
16b
16a
16g
8e
=8
2d}
=9
{8g
8g
8e
16d
16e
=10
8g
8g
8r
8e
=11
4a
8a
8dd
=12
8e
8d
4e}
=13
{8dd
8dd
4b
=14
16e
16g
16g
16e
4d
=15
8g
8g
16e
16g
16b
16g
=16
2a}
=17
{8a
8a
8dd
16dd
16b
=18
8a
8dd
4b
=19
4a
4d
=20
8.dd
16b
16a
16g
8e
=21
2d}
==
!!!AGN: Xiaodiao, Xiuhuadeng diao
!!!AMT: simple duple
!!!AIN: vox
!!!EED: Helmut Schaffrath
!!!EEV: 1.0
*-
